!!!OTL: 63k. J.S. Bach, French Suite no. 3 in B minor, BWV 814, Menuet, mm. 1-16
**kern	**kern
*thru	*thru
*staff2	*staff1
*>A	*>A
*clefF4	*clefG2
*k[f#c#]	*k[f#c#]
*b:	*b:
*M3/4	*M3/4
*MM110	*MM110
=1-	=1-
4B\	8dd\L
.	8ff#\
4BB/	8bb\
.	8ff#\
4A#\	8cc#\
.	8ff#\J
=2	=2
4B\	8dd\L
.	8ff#\
4d\	8b\
.	8ff#\
4f#\	8a#\
.	8ff#\J
=3	=3
4d\	8b\L
.	8ff#\
4B\	8bb\
.	8ff#\
4A#\	8cc#\
.	8ff#\J
=4	=4
4B\	8dd\L
.	8ff#\
4D\	8b\
.	8ff#\
4F#\	8a#\
.	8ff#\J
=5	=5
4BB/	8dd\L
.	8ff#\
4B\	8dd\
.	8b\
4E\	8gg\
.	8ee\J
=6	=6
4AA/	8cc#\L
.	8ee\
4A\	8cc#\
.	8a\
4D\	8ff#\
.	8dd\J
=7	=7
4GG/	8b\L
.	8ff#\
4G\	8ee\
.	8dd\
4E\	8cc#\
.	8b\J
=8	=8
8F#\L	8a#\L
8G\	8f#\
8F#\	8a#\
8E\	8cc#\
8D\	8ff#\
8C#\J	8ee\J
=9	=9
4BB/	8dd\L
.	8ff#\
4B\	8bb\
.	8ff#\
4A#\	8cc#\
.	8ff#\J
=10	=10
4B\	8dd\L
.	8ff#\
4d\	8b\
.	8ff#\
4f#\	8a#\
.	8ff#\J
=11	=11
4d\	8b\L
.	8ff#\
4B\	8bb\
.	8ff#\
4A#\	8cc#\
.	8ff#\J
=12	=12
4B\	8dd\L
.	8ff#\
4D\	8b\
.	8ff#\
4F#\	8a#\
.	8ff#\J
=13	=13
4BB/	8dd\L
.	8ff#\
4B\	8dd\
.	8b\
4E\	8gg\
.	8ee\J
=14	=14
4AA/	8cc#\L
.	8ee\J
4A\	8cc#\L
.	8a\J
4C#/	8aa\L
.	8ee\J
=15	=15
4D\	8ff#\L
.	8aa\J
4F#\	8ff#\L
.	8dd\J
4A\	8a\L
.	8cc#\J
=16	=16
4D\	2.dd\
4AA/	.
4DD/	.
==:|!	==:|!
*-	*-
!!!hum2abc: -q
